incomeartour/img/icons/telegram-round.svg

<svg width="26" height="26" viewBox="0 0 26 26" fill="none" xmlns="http://www.w3.org/2000/svg">
<path fill-rule="evenodd" clip-rule="evenodd" d="M25.5095 13C25.5095 19.9036 19.9131 25.5 13.0095 25.5C6.10596 25.5 0.509521 19.9036 0.509521 13C0.509521 6.09644 6.10596 0.5 13.0095 0.5C19.9131 0.5 25.5095 6.09644 25.5095 13ZM13.4575 9.72808C12.2416 10.2338 9.81174 11.2804 6.16773 12.8681C5.576 13.1034 5.26603 13.3336 5.23781 13.5587C5.19012 13.9391 5.6665 14.0889 6.31521 14.2929C6.40345 14.3206 6.49488 14.3494 6.58861 14.3798C7.22684 14.5873 8.08537 14.83 8.53168 14.8396C8.93653 14.8484 9.38839 14.6815 9.88726 14.3389C13.292 12.0407 15.0495 10.879 15.1598 10.854C15.2377 10.8363 15.3456 10.8141 15.4186 10.879C15.4917 10.944 15.4845 11.067 15.4768 11.1C15.4296 11.3012 13.5596 13.0397 12.5919 13.9394C12.2902 14.2199 12.0763 14.4188 12.0325 14.4642C11.9345 14.566 11.8346 14.6623 11.7387 14.7548C11.1457 15.3264 10.7011 15.7551 11.7633 16.455C12.2737 16.7914 12.6822 17.0696 13.0897 17.3471C13.5347 17.6501 13.9786 17.9524 14.5529 18.3288C14.6992 18.4248 14.8389 18.5244 14.975 18.6214C15.4929 18.9906 15.9582 19.3223 16.533 19.2694C16.8671 19.2387 17.2121 18.9246 17.3873 17.9879C17.8014 15.7741 18.6154 10.9776 18.8035 9.00104C18.82 8.82787 18.7992 8.60625 18.7826 8.50896C18.7659 8.41167 18.7311 8.27306 18.6047 8.17044C18.4549 8.04892 18.2237 8.02329 18.1203 8.02512C17.6502 8.0334 16.9288 8.28421 13.4575 9.72808Z" fill="#272727"/>
</svg>

<svg width="26" height="26" fill="none" xmlns="http://www.w3.org/2000/svg"><path fill-rule="evenodd" clip-rule="evenodd" d="M25.51 13c0 6.904-5.597 12.5-12.5 12.5C6.105 25.5.51 19.904.51 13S6.106.5 13.01.5c6.903 0 12.5 5.596 12.5 12.5zM13.456 9.728c-1.215.506-3.645 1.552-7.29 3.14-.591.235-.901.466-.93.69-.047.381.43.53 1.078.735.088.028.18.056.274.087.638.207 1.496.45 1.943.46.405.008.856-.159 1.355-.501 3.405-2.298 5.162-3.46 5.273-3.485.078-.018.186-.04.259.025.073.065.066.188.058.221-.047.201-1.917 1.94-2.885 2.84-.302.28-.516.479-.56.524a9.936 9.936 0 01-.293.29c-.593.572-1.038 1.001.024 1.701.51.336.92.615 1.327.892.445.303.889.605 1.463.982.146.096.286.195.422.292.518.37.983.701 1.558.648.334-.03.68-.344.854-1.281.414-2.214 1.228-7.01 1.416-8.987a2.207 2.207 0 00-.02-.492.527.527 0 00-.178-.339c-.15-.121-.381-.147-.485-.145-.47.008-1.191.26-4.663 1.703z" fill="#272727"/></svg>
